X:1
T:10. My Old Kentucky Home
T:Foster
T:Transcribed By Jennifer Lee
T:10. My Old Kentucky Home
C:Foster
Z:Lyricist
%%score { 1 | 2 }
L:1/8
M:4/4
K:G
V:1 treble nm="Piano" snm="Pno."
V:2 bass 
V:1
"^Rather Slow" z [GB] | [GB]2 [GB]2 G2 [GA][GB] | [Gc]>[GB] [Gc][Ge] [Gd]2 z [Gc]/-[Gc]/ | %3
w: The|sun shines bright in the|old Ken- tuck- y home, 'Tis _|
 [GB][DA] z [DG] [^CG]2 [CF]>[CG] | [DA]6 z [FA] | [GB]2 [GB]2 G2 [GA][GB] | %6
w: sum- mer. the dark- ies are|gay; The|corn- top's ripe and the|
 [Gc]>[GB] [Gc][Ge] [Gd]2 G>[GA] | [GB]2 [GB]-[GB] [FA]-G [FB]->[FA] | G6 z [GB] | %9
w: mead- ow's in the bloom, While the|birds make _ mu- sic all the|day; The|
 [GB]2 [GB]2 G2 [GA][GB] | [Gc]>[GB] [Gc][Ge] [Gd]2 z [Gc] | [GB][DA] z [DG] [^CG]2 [CF]>[CG] | %12
w: young folks roll on the|lit- tle cab- in floor, All|mer- ry, all hap- py and|
 [DA]6 z D | [GB]2 [GB]2 G2 [GA][GB] | [Gc]>[GB] [Gc][Ge] !fermata![Gd]2 G[GA] | %15
w: bright; By'n|by hard times comes a-|knock- ing at the door, Then my|
 [GB]G[Gc][GB] [FA]3 [DF] | [DG]6 z2 |"^CHORUS." [Gd]3 [GB] [Gc]2 [Ge]2 | [Gd] [GB]3 z2 [FA]2 | %19
w: old Ken- tuck- y home, good|night!|Weep no more, my|la- dy, O|
 [EG]3 [EA] [EG]2 [CE]2 | [B,G]4 z2 G[GA] | [GB]2 [GB]2 G2 [GA][GB] | %22
w: weep no more to-|day! We will|sing one song for the|
 [Gc]>[GB] [Gc][Ge] !fermata![Gd]2 G[GA] | [GB]>G [Gc][GB] [FA]2 [FA]>[DF] | [DG]4 z4 |] %25
w: old Ken- tuck- y home, For the|old Ken- tuck- y home far a-|way.|
V:2
 z [G,D] | [G,D]2 [G,D]2 [G,B,]2 [G,C][G,D] | [G,E]>[G,D] [G,E][G,C] [G,B,]2 z [G,E]/-[G,E]/ | %3
 [G,D][G,C] z [G,B,] [E,A,]2 [E,A,]>[E,G,] | [D,F,]6 z [D,D] | [G,D]2 [G,D]2 [G,B,]2 [G,C][G,D] | %6
 [G,E]>[G,D] [G,E][G,C] [G,B,]2 [E,B,]>[E,^C] | [D,D]2 [D,D]-[D,D] [D,C]-[D,B,] [D,D]->[D,C] | %8
 [G,B,]6 z [G,D] | [G,D]2 [G,D]2 [G,B,]2 [G,C][G,D] | [G,E]>[G,D] [G,E][G,C] [G,B,]2 z [G,E] | %11
 [G,D][G,C] z [G,B,] [E,A,]2 [E,A,]>[E,G,] | [D,F,]6 z [D,D] | [G,D]2 [G,D]2 [G,B,]2 [G,C][G,D] | %14
 [G,E]>[G,D] [G,E][G,C] [G,B,]2 [E,B,][E,^C] | [D,D][D,B,][E,E][D,D] [D,C]3 [D,C] | [G,B,]6 z2 | %17
 [G,B,]3 [G,D] [C,E]2 [C,C]2 | [G,B,] [G,D]3 z2 [D,C]2 | [E,B,]3 [E,B,] [C,C]2 [C,G,]2 | %20
"^2. They hunt no more for the possum and the coon,On the meadow, the hill and the shore;They sing no more by the glimmer of the moon,On the bench by the old cabin door;The day goes by like a shadow o'er the heart,With sorrow where all was delight;The time has come when the darkies have to part,Then my old Kentucky home, good night!Chorus" G,4 z2 [G,B,][G,C] | %21
 [G,D]2 [G,D]2 [G,B,]2 [A,C][G,D] | %22
 [C,E]>[D,D] [C,E][C,C] [G,B,]2"^3. The head must bow and the back will have to bend,Wherever the darky may go;A few more days, and the trouble all will end,In the field where the sugarcanes grow;A few more days for to tote the weary load,No matter, 'twill never be light;A few more days till we totter on the road,Then my old Kentucky home, good night!Chorus" [G,B,][G,C] | %23
 [D,D]>[D,B,] [D,E][D,D] [D,C]2 [D,C]>[D,C] | [G,B,]4 z4 |] %25

